packages/core/src/svgs/waxp.svg

<svg width="24" height="24" viewBox="0 0 24 24" fill="none" xmlns="http://www.w3.org/2000/svg">
<g clip-path="url(#clip0_31_20641)">
<path d="M0 0H24V24H0V0Z" fill="#F78E1E"/>
<path d="M20.2715 10.2857L19.2858 11.13L20.2929 12L22.2858 10.2857H20.2715ZM14.1429 9L17.9572 12.4071L16.5001 13.2857L13.9286 10.2857H12.2144L7.71436 15.8571H9.42864L13.0715 11.5714L14.2115 12.8571H12.8572L12.0001 13.7143H14.8544L15.6429 14.5714H17.3572L19.0715 13.2857L20.5715 14.5714H22.2858L15.8572 9H14.1429ZM8.5715 10.2857L7.71436 12.8571L6.85721 10.2857H5.14293L4.28578 12.8571L3.42864 10.2857H1.71436L3.42864 14.5714H5.14293L6.00007 12L6.85721 14.5714H8.5715L10.2858 10.2857H8.5715Z" fill="white"/>
</g>
<defs>
<clipPath id="clip0_31_20641">
<rect width="24" height="24" fill="white"/>
</clipPath>
</defs>
</svg>

<svg xmlns="http://www.w3.org/2000/svg" width="24" height="24" fill="none" viewBox="0 0 24 24"><g clip-path="url(#a)"><path fill="#F78E1E" d="M0 0h24v24H0z"/><path fill="#fff" d="m20.272 10.286-.986.844 1.007.87 1.993-1.714zM14.142 9l3.815 3.407-1.457.879-2.571-3h-1.715l-4.5 5.571H9.43l3.643-4.286 1.14 1.286h-1.355l-.857.857h2.854l.789.857h1.714l1.715-1.285 1.5 1.285h1.714L15.857 9zm-5.57 1.286-.858 2.571-.857-2.571H5.143l-.857 2.571-.857-2.571H1.714L3.43 14.57h1.714L6 12l.857 2.571h1.715l1.714-4.285z"/></g><defs><clipPath id="a"><path fill="#fff" d="M0 0h24v24H0z"/></clipPath></defs></svg>
